assets/capabilities/water-level-down.svg

<?xml version="1.0" encoding="UTF-8" standalone="no"?>
<!-- Created with Inkscape (http://www.inkscape.org/) -->

<svg
   width="960"
   height="960"
   viewBox="0 0 253.99999 254"
   version="1.1"
   id="svg1"
   xml:space="preserve"
   inkscape:version="1.4.4 (dcaf3e7, 2026-05-05)"
   sodipodi:docname="water-leveldwon.svg"
   xmlns:inkscape="http://www.inkscape.org/namespaces/inkscape"
   xmlns:sodipodi="http://sodipodi.sourceforge.net/DTD/sodipodi-0.dtd"
   xmlns="http://www.w3.org/2000/svg"
   xmlns:svg="http://www.w3.org/2000/svg"><sodipodi:namedview
     id="namedview1"
     pagecolor="#ffffff"
     bordercolor="#000000"
     borderopacity="0.25"
     inkscape:showpageshadow="2"
     inkscape:pageopacity="0.0"
     inkscape:pagecheckerboard="0"
     inkscape:deskcolor="#d1d1d1"
     inkscape:document-units="mm"
     inkscape:zoom="0.61166026"
     inkscape:cx="396.46192"
     inkscape:cy="561.58626"
     inkscape:window-width="1442"
     inkscape:window-height="1120"
     inkscape:window-x="360"
     inkscape:window-y="30"
     inkscape:window-maximized="0"
     inkscape:current-layer="layer1" /><defs
     id="defs1" /><g
     inkscape:label="Camada 1"
     inkscape:groupmode="layer"
     id="layer1"><path
       style="fill:#000000"
       d="m 90.683512,234.89754 c -2.773111,-0.0928 -5.576197,-0.29339 -6.229079,-0.4457 -0.652882,-0.15231 -2.045168,-0.70937 -3.093967,-1.2379 -5.002795,-2.52114 -7.537783,-5.08916 -9.943273,-10.07287 -2.007539,-4.15923 -1.821706,5.01342 -1.793264,-88.51502 0.01815,-59.674449 0.09802,-83.781516 0.284519,-85.875804 0.366222,-4.112403 1.604226,-7.120126 4.345412,-10.557151 2.208136,-2.768663 6.781098,-5.801539 10.127127,-6.716505 2.332165,-0.637727 9.571283,-0.767234 42.627993,-0.762613 34.11436,0.0048 42.74757,0.148929 44.88479,0.749499 1.66565,0.468058 4.29163,1.739209 6.02598,2.916981 3.83305,2.602974 7.20805,7.438206 8.13092,11.648835 0.67653,3.086694 0.79202,18.368329 0.72498,95.930608 l -0.0662,76.54705 -0.5078,1.60428 c -1.29278,4.08423 -4.20605,8.4532 -7.07694,10.61311 -2.35677,1.77313 -5.80849,3.43886 -7.99809,3.85973 -1.59328,0.30625 -6.65219,0.36092 -38.6173,0.41733 -20.2311,0.0357 -39.052736,-0.011 -41.825848,-0.10386 z m 81.066938,-5.1928 c 2.73403,-1.11056 3.80031,-1.82332 5.91709,-3.9553 1.69057,-1.70272 2.12042,-2.30769 3.15511,-4.44051 l 1.19788,-2.46923 -0.0611,-85.65155 -0.0611,-85.651549 -0.60555,-1.656586 c -1.52215,-4.164068 -4.16694,-7.040933 -8.56176,-9.31303 l -1.83347,-0.947888 H 128.61326 86.32904 l -1.489688,0.517734 c -2.219409,0.771345 -3.73475,1.72967 -5.690582,3.598814 -1.974847,1.887314 -3.651239,4.476134 -4.30948,6.655042 -0.39724,1.314946 -0.418474,5.0142 -0.485429,84.568443 -0.04395,52.22537 0.01257,84.23619 0.151858,85.99489 0.214128,2.70374 0.259835,2.87505 1.309191,4.90679 2.30163,4.45638 6.878618,7.90785 11.201678,8.44708 0.756303,0.0943 19.732632,0.15897 42.169622,0.14362 l 40.79453,-0.0279 z m -79.233476,-3.28064 -5.729568,-0.12935 -1.489688,-0.76786 c -2.941032,-1.51597 -4.69222,-3.27327 -6.196192,-6.2178 -0.484887,-0.94934 -0.542938,-1.46861 -0.730196,-6.53171 -0.274917,-7.43322 -0.13035,-25.70961 0.209518,-26.48754 0.199144,-0.45583 0.796358,-0.81323 2.627856,-1.57267 3.863985,-1.6022 6.701176,-1.91817 11.494861,-1.28014 3.030347,0.40333 4.536701,1.02178 9.928775,4.07642 2.39068,1.35433 4.7547,2.50396 6.0679,2.95083 1.94931,0.66333 2.47421,0.74167 5.5891,0.83419 5.58612,0.16592 7.40095,-0.31796 13.178,-3.51356 6.90625,-3.82022 8.42245,-4.37364 12.60505,-4.60093 2.90329,-0.15776 6.42164,0.32054 8.46477,1.15073 0.76598,0.31125 3.23005,1.60395 5.47572,2.87267 2.24566,1.26872 4.69519,2.55551 5.44341,2.85954 2.16906,0.88137 4.59801,1.28187 7.77426,1.28187 3.31192,0 5.66188,-0.40846 8.01706,-1.39349 0.87996,-0.36804 1.73336,-0.66916 1.89643,-0.66916 0.78171,0 0.84935,1.07028 0.84005,13.2926 -0.01,12.97036 -0.15671,15.22429 -1.13155,17.36775 -0.63917,1.40542 -2.60971,3.55945 -4.35733,4.76308 -1.97341,1.35914 -2.88577,1.48376 -12.48392,1.70517 -9.28313,0.21414 -58.12339,0.22092 -67.494316,0.009 z m 30.199096,-62.91416 c -4.22725,-8.45694 -5.15383,-10.47624 -4.91641,-10.71429 0.20427,-0.20481 1.44792,-0.32792 4.12069,-0.40793 l 3.82812,-0.11459 0.11459,-9.47243 c 0.13133,-10.85565 -0.0346,-10.1227 2.29183,-10.1227 2.32645,0 2.1605,-0.73295 2.29183,10.1227 l 0.11459,9.47243 3.94269,0.11459 c 2.76623,0.0804 4.02999,0.20212 4.23528,0.40793 0.23746,0.23806 -0.68898,2.25704 -4.91638,10.71429 -3.40329,6.80854 -5.32838,10.42096 -5.55342,10.42096 -0.22503,0 -2.15012,-3.61242 -5.55341,-10.42096 z m 26.63178,-94.986784 c -2.00008,-0.154235 -2.6753,-0.485809 -3.95321,-1.941261 -1.28778,-1.466701 -1.31155,-1.685195 -1.31155,-12.055219 0,-10.829824 0.0101,-10.899893 1.81615,-12.564627 1.56162,-1.439449 2.31529,-1.533761 12.04941,-1.507826 9.13546,0.02434 9.78283,0.09898 11.13187,1.283458 1.87319,1.644676 2.14847,3.199933 2.14198,12.101446 -0.006,8.487852 -0.20105,10.897198 -0.99031,12.243963 -0.88338,1.507372 -2.14793,2.169163 -4.64731,2.43212 -2.19886,0.231339 -13.26986,0.236757 -16.23703,0.0079 z m 13.52823,-7.693954 v -1.145914 l -3.23586,-0.0634 c -2.90141,-0.05685 -3.27885,-0.110903 -3.65174,-0.522941 -0.37204,-0.411103 -0.42667,-1.063729 -0.51835,-6.192367 l -0.10247,-5.732833 -1.28781,0.06784 -1.28781,0.06784 -0.0607,7.10243 c -0.0334,3.906336 -0.0101,7.234369 0.0518,7.395629 0.0876,0.228386 1.21563,0.279543 5.10271,0.231419 l 4.9902,-0.06178 z"
       id="path1" /></g></svg>

<?xml version="1.0" encoding="utf-8"?>
<svg width="960" height="960" viewBox="0 0 253.99999 254" version="1.1" id="svg1" xmlns="http://www.w3.org/2000/svg" xmlns:bx="https://boxy-svg.com">
  <g style="" transform="matrix(1.220044, 0, 0, 1.184396, -15.35264, -29.90658)">
    <path style="fill:#000000" d="M 90.684 234.898 C 87.91 234.805 85.107 234.604 84.454 234.452 C 83.802 234.3 82.409 233.742 81.36 233.214 C 76.358 230.693 73.823 228.125 71.417 223.141 C 69.41 218.982 69.722 50.845 69.908 48.75 C 70.275 44.638 71.513 41.63 74.254 38.193 C 76.462 35.424 81.035 32.392 84.381 31.477 C 86.713 30.839 93.952 30.709 127.009 30.714 C 161.123 30.719 169.757 30.863 171.894 31.463 C 173.559 31.932 185.128 41.819 186.051 46.029 C 186.727 49.116 186.843 64.398 186.776 141.96 L 186.709 218.507 L 186.202 220.111 C 184.909 224.195 181.996 228.564 179.125 230.724 C 176.768 232.497 173.316 234.163 171.127 234.584 C 169.533 234.89 164.474 234.945 132.509 235.001 C 112.278 235.037 93.457 234.99 90.683 234.898 L 90.684 234.898 Z M 171.75 229.705 C 174.484 228.594 175.551 227.881 177.668 225.749 C 179.358 224.047 179.788 223.442 180.823 221.309 L 182.021 218.84 L 181.959 133.188 L 181.898 47.537 L 181.293 45.88 C 179.771 41.716 177.126 38.839 172.731 36.567 L 170.898 35.619 L 128.613 35.619 L 86.329 35.619 L 84.839 36.137 C 82.62 36.908 81.105 37.867 79.149 39.736 C 77.174 41.623 75.498 44.212 74.839 46.391 C 74.442 47.706 74.421 51.405 74.354 130.959 C 74.31 183.185 74.366 215.195 74.506 216.954 C 74.72 219.658 74.766 219.829 75.815 221.861 C 78.117 226.317 82.694 229.769 87.017 230.308 C 87.773 230.402 106.749 230.467 129.186 230.452 L 169.981 230.424 L 171.75 229.705 Z M 92.517 226.424 L 86.787 226.295 L 85.298 225.527 C 82.357 224.011 80.605 222.254 79.102 219.309 C 78.617 218.36 78.559 217.84 78.371 212.777 C 78.096 205.344 78.241 187.068 78.581 186.29 C 78.78 185.834 79.377 185.477 81.209 184.717 C 85.073 183.115 87.91 182.799 92.704 183.437 C 95.734 183.84 97.24 184.459 102.632 187.513 C 105.023 188.868 107.387 190.017 108.7 190.464 C 110.65 191.128 111.174 191.206 114.289 191.298 C 119.875 191.464 121.69 190.981 127.467 187.785 C 134.374 183.965 135.89 183.411 140.072 183.184 C 142.976 183.026 146.494 183.505 148.537 184.335 C 149.303 184.646 151.767 185.939 154.013 187.207 C 156.259 188.476 158.708 189.763 159.456 190.067 C 161.625 190.948 164.054 191.349 167.231 191.349 C 170.542 191.349 172.892 190.94 175.248 189.955 C 176.128 189.587 176.981 189.286 177.144 189.286 C 177.926 189.286 177.993 190.356 177.984 202.579 C 177.974 215.549 177.827 217.803 176.853 219.946 C 176.213 221.352 174.243 223.506 172.495 224.71 C 170.522 226.069 169.609 226.193 160.011 226.415 C 150.728 226.629 101.888 226.636 92.517 226.424 Z" id="path1"/>
    <path d="M 154.328 45.896 L 177.344 91.546 L 131.312 91.546 L 154.328 45.896 Z" bx:shape="triangle 131.312 45.896 46.032 45.65 0.5 0 1@5dd64d62" style="stroke: rgb(0, 0, 0); fill: rgb(3, 3, 3);"/>
    <text style="fill: rgb(255, 255, 255); font-family: Arial, sans-serif; font-size: 37px; font-weight: 700; white-space: pre;" x="148.319" y="85.761">!</text>
    <path d="M 207.094 97.195 H 227.429 L 227.429 82.195 L 267.429 102.195 L 227.429 122.195 L 227.429 107.195 H 207.094 V 97.195 Z" bx:shape="arrow 207.094 82.195 60.335 40 10 40 0 1@f24b1cee" style="stroke: rgb(0, 0, 0); fill: rgb(4, 4, 4);" transform="matrix(-0.004654, 0.999989, -0.999989, -0.004654, 232.707153, -89.009323)"/>
  </g>
</svg>
